X:1466
T:The Jolly Seven
M:C|
L:1/8
N:"collected by Hartnett"
B:O'Neill's 1466
Z:"Transcribed by Bob Safranek, rjs@gsp.org"
K:C
c2 ec gcec|c2 ec dBGB|c2 ec gcec|afage dBGB|
c2 ec gcec|c2 ec dBGB|cBAG   ABcd|eaed    cA A2||
ceAe    ceAe|ceAe    dBGB|ceAe    ceAe|afage dBGB|
ceAe    ceAe|ceAe    dBGB|cBAG   ABcd|eaed    cA A2|]
